Logos/ETCDEV_Mascot.svg

<?xml version="1.0" encoding="utf-8"?>
<!-- Generator: Adobe Illustrator 21.1.0, SVG Export Plug-In . SVG Version: 6.00 Build 0)  -->
<svg version="1.1" id="Ebene_1" xmlns="http://www.w3.org/2000/svg" xmlns:xlink="http://www.w3.org/1999/xlink" x="0px" y="0px"
	 viewBox="0 0 40 68" enable-background="new 0 0 40 68" xml:space="preserve">
<g>
	<path fill="#00C853" d="M20,48c-5.333-2.667-10.667-5.333-16-8c5.333,8,10.667,16,16,24v0c5.333-8,10.667-16,16-24
		C30.667,42.667,25.333,45.333,20,48L20,48z"/>
	<path fill="#00C853" d="M20,24L20,24c5.333,2.667,10.667,5.333,16,8c-5.333-8-10.667-16-16-24v0l0,0l0,0l0,0
		C14.667,16,9.333,24,4,32C9.333,29.333,14.667,26.667,20,24z"/>
	<polygon fill="#00C853" points="36,36 20,28 4,36 20,44 	"/>
</g>
<path opacity="0.3" d="M20,48c-5.333-2.667-10.667-5.333-16-8c5.333,8,10.667,16,16,24C20,58.667,20,53.333,20,48z"/>
<path opacity="0.4" d="M20,48c5.333-2.667,10.667-5.333,16-8c-5.333,8-10.667,16-16,24C20,58.667,20,53.333,20,48z"/>
<path opacity="0.1" d="M20,24c5.333,2.667,10.667,5.333,16,8c-5.333-8-10.667-16-16-24C20,13.333,20,18.667,20,24z"/>
<path opacity="0" d="M20,24c-5.333,2.667-10.667,5.333-16,8c5.333-8,10.667-16,16-24C20,13.333,20,18.667,20,24z"/>
<polygon opacity="0.1" points="4,36 20,28 20,36 "/>
<polygon opacity="0.2" points="20,36 20,28 36,36 "/>
<polygon opacity="0.3" points="36,36 20,44 20,36 "/>
<polygon opacity="0.2" points="20,36 20,44 4,36 "/>
<g>
	
		<ellipse transform="matrix(0.9842 -0.177 0.177 0.9842 -2.4437 2.8555)" fill="#FFFFFF" stroke="#212121" stroke-width="0.4" stroke-miterlimit="10" cx="14.783" cy="15.125" rx="4.42" ry="6.582"/>
	
		<ellipse transform="matrix(0.9706 -0.2408 0.2408 0.9706 -3.4381 4.0764)" fill="#212121" cx="14.959" cy="16.105" rx="1.695" ry="2.546"/>
	<circle fill="#FFFFFF" cx="14.969" cy="16.333" r="0.75"/>
	<path d="M15.545,6.763c0.116,0.012,0.272-0.171,0.18-0.28c-0.049-0.059-0.182-0.161-0.335-0.259
		c-0.512-0.325-0.637-0.404-0.808-0.474c0,0-0.688-0.309-1.429-0.279c-1.85,0.076-3.344,1.124-3.75,3.018
		c-0.065,0.305,0.412,0.476,0.618,0.118c0.86-1.499,1.999-2.347,3.662-2.347c0.351,0,0.689,0.048,1.01,0.138
		c0.133,0.037,0.251,0.08,0.534,0.221C15.293,6.65,15.441,6.752,15.545,6.763z"/>
</g>
<g>
	
		<ellipse transform="matrix(0.0449 -0.999 0.999 0.0449 10.1606 39.197)" fill="#FFFFFF" stroke="#212121" stroke-width="0.4" stroke-miterlimit="10" cx="25.58" cy="14.285" rx="6.582" ry="4.42"/>
	<g>
		<path d="M30.402,8.817c0.08,0.084,0.318,0.046,0.319-0.097c0.001-0.077-0.034-0.241-0.088-0.414
			c-0.179-0.579-0.223-0.721-0.308-0.885c0,0-0.323-0.681-0.907-1.138c-1.458-1.141-3.275-1.312-4.812-0.133
			c-0.247,0.19,0.005,0.63,0.394,0.49c1.626-0.584,3.044-0.491,4.31,0.586c0.267,0.227,0.494,0.483,0.68,0.759
			c0.077,0.114,0.139,0.223,0.264,0.515C30.283,8.568,30.329,8.742,30.402,8.817z"/>
		
			<ellipse transform="matrix(0.2739 -0.9618 0.9618 0.2739 2.6438 35.1683)" fill="#212121" cx="24.613" cy="15.833" rx="2.546" ry="1.695"/>
		
			<ellipse transform="matrix(0.4974 -0.8675 0.8675 0.4974 -1.7834 29.338)" fill="#FFFFFF" cx="24.429" cy="16.208" rx="0.75" ry="0.75"/>
	</g>
</g>
</svg>

<svg id="Ebene_1" data-name="Ebene 1" xmlns="http://www.w3.org/2000/svg" viewBox="0 0 40 68"><title>ETCDEV</title><path d="M20,48,4,40,20,64h0L36,40,20,48Z" style="fill:#00c853"/><path d="M20,24h0l16,8L20,8h0L4,32Z" style="fill:#00c853"/><polygon points="36 36 20 28 4 36 20 44 36 36" style="fill:#00c853"/><path d="M20,48,4,40,20,64Z" style="opacity:0.30000000000000004"/><path d="M20,48l16-8L20,64Z" style="opacity:0.4"/><path d="M20,24l16,8L20,8Z" style="opacity:0.1"/><path d="M20,24,4,32,20,8Z" style="fill:#00c853;opacity:0"/><polygon points="4 36 20 28 20 36 4 36" style="opacity:0.1"/><polygon points="20 36 20 28 36 36 20 36" style="opacity:0.2"/><polygon points="36 36 20 44 20 36 36 36" style="opacity:0.30000000000000004"/><polygon points="20 36 20 44 4 36 20 36" style="opacity:0.2"/><ellipse cx="14.78" cy="15.12" rx="4.42" ry="6.58" transform="translate(-2.44 2.86) rotate(-10.2)" style="fill:#fff;stroke:#222;stroke-miterlimit:10;stroke-width:0.400000005960465px"/><ellipse cx="14.96" cy="16.11" rx="1.69" ry="2.55" transform="translate(-3.44 4.08) rotate(-13.93)" style="fill:#222"/><circle cx="14.97" cy="16.33" r="0.75" style="fill:#fff"/><path d="M15.55,6.76c.12,0,.27-.17.18-.28a1.74,1.74,0,0,0-.34-.26,5.58,5.58,0,0,0-.81-.47,3.59,3.59,0,0,0-1.43-.28,3.76,3.76,0,0,0-3.75,3c-.07.31.41.48.62.12a4,4,0,0,1,3.66-2.35,3.75,3.75,0,0,1,1,.14,2.73,2.73,0,0,1,.53.22A1.13,1.13,0,0,0,15.55,6.76Z" style="fill:#222"/><ellipse cx="25.58" cy="14.28" rx="6.58" ry="4.42" transform="translate(10.16 39.2) rotate(-87.43)" style="fill:#fff;stroke:#222;stroke-miterlimit:10;stroke-width:0.400000005960465px"/><path d="M30.4,8.82c.08.08.32,0,.32-.1a1.74,1.74,0,0,0-.09-.41,5.58,5.58,0,0,0-.31-.88,3.58,3.58,0,0,0-.91-1.14,3.76,3.76,0,0,0-4.81-.13c-.25.19,0,.63.39.49a4,4,0,0,1,4.31.59A3.75,3.75,0,0,1,30,8a2.73,2.73,0,0,1,.26.51A1.13,1.13,0,0,0,30.4,8.82Z" style="fill:#222"/><ellipse cx="24.61" cy="15.83" rx="2.55" ry="1.69" transform="matrix(0.27, -0.96, 0.96, 0.27, 2.64, 35.17)" style="fill:#222"/><circle cx="24.43" cy="16.21" r="0.75" transform="translate(-1.78 29.34) rotate(-60.17)" style="fill:#fff"/></svg>
